X:1
T:Title
%%score 1 2
L:1/8
Q:1/4=120
M:6/4
K:F
V:1 treble nm="Strings 1, Treble"
V:2 treble nm="Strings 1, Bass"
V:1
 z6 z4 FG | A4 A2 B4 A2 | A2 F4- F4 [CE][CF] | [EG]4 [EG]2 [CF]4 [EG]2 | [FA]6- [FA]4 FG | %5
w: 1.~"Shall~ my~|soul~ as cend~ with~|rap ture~ * When~ the~|day~ of~ life~ is~|past;~ * While~ my~|
 A4 c2 A4 G2 | F2 B4- B4 [FA][CG] | [CF]4 [CF]2 [CG]4 [CA]2 | [CF]6- [CF]4 [CE][CF] | %9
w: house~ of~ clay~ shall~|slum ber,~ * Shall~ I~|then~ with~ Je sus~|rest?"~ * * *|
 [EG]4 [EG]2 [CF]4 [EG]2 | [FA]2 [Fc]4- [Fc]4 [GB][FA] | [EG]4 [EG]2 F4 [EG]2 | %12
w: |||
 [FA]6- [FA]4 [FA][FB] | [Fc]4 [Fc]2 [CA]4 [CF]2 | [DG]2 [DF]4- [DF]4 [CE][B,D] | %15
w: |||
 [A,C]4 [CF]2 [CG]4 [CA]2 | [CF]12 |] %17
w: ||
V:2
 z6 z4 A,B, | C4 C2 D4 C2 | C2[K:bass] A,4- A,4 [C,G,][C,A,] | [C,B,]4 [C,B,]2 [C,A,]4 [C,C]2 | %4
 [F,C]6- [F,C]4 A,B, | C4 A,2 C4 B,2 | A,2 D4- D4 [C,C][C,B,] | [C,A,]4 [C,A,]2 [C,B,]4 [C,C]2 | %8
 [F,A,]6- [F,A,]4 [C,G,][C,A,] | [C,B,]4 [C,B,]2 [C,A,]4 [C,C]2 | %10
 [F,C]2 [F,A,]4- [F,A,]4 [E,C][F,C] | [C,C]4 [C,B,]2 [D,A,]4 [C,C]2 | [F,C]6- [F,C]4 F,[F,G,] | %13
 [F,A,]4 [F,A,]2 F,4 [A,,F,]2 | [B,,F,]2 [B,,F,]4- [B,,F,]4 [B,,F,][B,,F,] | %15
 [C,F,]4 [C,A,]2 [C,B,]4 [C,C]2 | [F,,F,A,]12 |] %17

